X: 35471
T: Roxburgh Castle
R: hornpipe
M: 4/4
K: Amajor
E2|A2Ac ecAc|d2df ecAc|d2fd c2ec|B2B2 BdcB|
A2Ac ecAc|d2df edcd|eagf edcB|A2c2 A2:|
e2|aece fece|aece fecA|d2fd c2ec|B2B2 BdcB|
A2Ac ecAc|d2df edcd|eagf edcB|A2c2 A2:|

